polaris-icons/icons/new-icons/CustomerPlusMajor.svg

<svg width="20" height="20" viewBox="0 0 20 20" fill="none" xmlns="http://www.w3.org/2000/svg">
<path d="M16.25 1.75C16.25 1.33579 15.9142 1 15.5 1C15.0858 1 14.75 1.33579 14.75 1.75V2.75H13.75C13.3358 2.75 13 3.08579 13 3.5C13 3.91421 13.3358 4.25 13.75 4.25H14.75V5.25C14.75 5.66421 15.0858 6 15.5 6C15.9142 6 16.25 5.66421 16.25 5.25V4.25H17.25C17.6642 4.25 18 3.91421 18 3.5C18 3.08579 17.6642 2.75 17.25 2.75H16.25V1.75Z" fill="#4A4A4A"/>
<path fill-rule="evenodd" clip-rule="evenodd" d="M9 3C7.067 3 5.5 4.567 5.5 6.5C5.5 8.433 7.067 10 9 10C10.933 10 12.5 8.433 12.5 6.5C12.5 4.567 10.933 3 9 3ZM7 6.5C7 5.39543 7.89543 4.5 9 4.5C10.1046 4.5 11 5.39543 11 6.5C11 7.60457 10.1046 8.5 9 8.5C7.89543 8.5 7 7.60457 7 6.5Z" fill="#4A4A4A"/>
<path fill-rule="evenodd" clip-rule="evenodd" d="M14.4839 14.2268C13.3775 12.2352 11.2783 11 8.99999 11C6.72169 11 4.62247 12.2352 3.51603 14.2268L3.07937 15.0128C2.58406 15.9043 3.22875 17 4.24867 17H13.7513C14.7712 17 15.4159 15.9043 14.9206 15.0128L14.4839 14.2268ZM4.82727 14.9552C5.66915 13.4398 7.26644 12.5 8.99999 12.5C10.7335 12.5 12.3308 13.4398 13.1727 14.9552L13.4754 15.5H4.52463L4.82727 14.9552Z" fill="#4A4A4A"/>
</svg>

<svg viewBox="0 0 20 20" xmlns="http://www.w3.org/2000/svg"><path d="M16.25 1.75a.75.75 0 0 0-1.5 0v1h-1a.75.75 0 0 0 0 1.5h1v1a.75.75 0 0 0 1.5 0v-1h1a.75.75 0 0 0 0-1.5h-1v-1Z" fill="#5C5F62"/><path fill-rule="evenodd" d="M9 3a3.5 3.5 0 1 0 0 7 3.5 3.5 0 0 0 0-7Zm-2 3.5a2 2 0 1 1 4 0 2 2 0 0 1-4 0Z" fill="#5C5F62"/><path fill-rule="evenodd" d="M14.484 14.227a6.273 6.273 0 0 0-10.968 0l-.437.786a1.338 1.338 0 0 0 1.17 1.987h9.502a1.338 1.338 0 0 0 1.17-1.987l-.437-.786Zm-9.657.728a4.773 4.773 0 0 1 8.346 0l.302.545h-8.95l.302-.545Z" fill="#5C5F62"/></svg>
